X: 28504
T: Munster Bank, The
R: polka
M: 2/4
K: Amajor
|:A>F EF|AB ce|fe cd/c/|BA FE|
A/B/A/F/ EF|AB ce|fe cd/c/|1 BA A2:|2 BA Af||
|:fe ce|fe ce|a>f ec|BA FE|
A/B/A/F/ EF|AB ce|fe cd/c/|1 BA Af:|2 BA A2||

